static/images/icons/chat.svg

<svg width="650" height="650" fill="none" xmlns="http://www.w3.org/2000/svg"><path d="M0 325C0 81.25 81.25 0 325 0s325 81.25 325 325-81.25 325-325 325S0 568.75 0 325z" fill="#266DD3"/><path d="M402.265 331.3c39.412 0 71.485 25.148 71.485 56.079 0 15.832-6.545 24.668-15.612 35.468-.297 10.545-.694 14.899 1.97 26.378-12.623-4.326-13.969-5.598-23.602-11.493-12.665 3.082-21.094 5.372-34.921 5.372-43.732 0-70.805-28.923-70.805-55.725 0-30.931 32.073-56.079 71.485-56.079zm0-21.205c-48.677 0-92.735 32.401-92.735 77.284 0 39.567 37.301 76.93 92.055 76.93 9.903 0 20.4-1.23 31.351-3.888 12.948 7.931 41.551 15.946 61.653 19.579-7.508-14.758-15.824-35.044-15.413-49.18C489.291 418.761 495 403.211 495 387.379c0-44.643-43.761-77.284-92.735-77.284zM282.061 375.32c-16.122-1.555-22.823-3.491-36.989-6.941-13.742 8.426-17.85 11.521-42.614 19.424 5.922-21.403 5.157-30.86 4.718-44.996-11.815-14.137-23.843-29.263-23.843-55.74 0-49.506 50.845-89.794 113.334-89.794 60.406 0 109.763 37.659 113.021 84.874 9.889.538 19.508 1.98 28.631 4.453-.311-68.335-67.461-117.6-141.652-117.6C221.852 169 155 218.859 155 287.067c0 24.173 8.713 47.936 24.154 66.37.666 21.586-12.056 52.559-23.531 75.107 30.714-5.528 74.404-17.784 94.194-29.899a208.709 208.709 0 0033.009 5.287c-1.913-10.588-2.097-18.617-.765-28.612z" fill="#fff"/></svg>

<svg width="650" height="650" viewBox="0 0 650 650" fill="none" xmlns="http://www.w3.org/2000/svg">
<path d="M0 325C0 81.25 81.25 0 325 0C568.75 0 650 81.25 650 325C650 568.75 568.75 650 325 650C81.25 650 0 568.75 0 325Z" fill="#266DD3"/>
<path d="M402.265 331.3C441.677 331.3 473.75 356.448 473.75 387.379C473.75 403.211 467.205 412.047 458.138 422.847C457.841 433.392 457.444 437.746 460.108 449.225C447.485 444.899 446.139 443.627 436.506 437.732C423.841 440.814 415.412 443.104 401.585 443.104C357.853 443.104 330.78 414.181 330.78 387.379C330.78 356.448 362.853 331.3 402.265 331.3V331.3ZM402.265 310.095C353.588 310.095 309.53 342.496 309.53 387.379C309.53 426.946 346.831 464.309 401.585 464.309C411.488 464.309 421.985 463.079 432.936 460.421C445.884 468.352 474.487 476.367 494.589 480C487.081 465.242 478.765 444.956 479.176 430.82C489.291 418.761 495 403.211 495 387.379C495 342.736 451.239 310.095 402.265 310.095V310.095ZM282.061 375.32C265.939 373.765 259.238 371.829 245.072 368.379C231.33 376.805 227.222 379.9 202.458 387.803C208.38 366.4 207.615 356.943 207.176 342.807C195.361 328.67 183.333 313.544 183.333 287.067C183.333 237.561 234.178 197.273 296.667 197.273C357.073 197.273 406.43 234.932 409.688 282.147C419.577 282.685 429.196 284.127 438.319 286.6C438.008 218.265 370.858 169 296.667 169C221.852 169 155 218.859 155 287.067C155 311.24 163.713 335.003 179.154 353.437C179.82 375.023 167.098 405.996 155.623 428.544C186.337 423.016 230.027 410.76 249.817 398.645C261.179 401.416 272.172 403.084 282.826 403.932C280.913 393.344 280.729 385.315 282.061 375.32V375.32Z" fill="white"/>
</svg>
